svgs/train_timetable_italy.svg

<svg width="192" height="192" viewBox="0 0 192 192" fill="none" xmlns="http://www.w3.org/2000/svg">
<path d="M125 148L142 170" stroke="black" stroke-width="12" stroke-linecap="round" stroke-linejoin="round"/>
<path d="M66 148L49 170" stroke="black" stroke-width="12" stroke-linecap="round" stroke-linejoin="round"/>
<path d="M74.2911 26.2911H59C53.4772 26.2911 49 30.7683 49 36.2912V125C49 130.523 53.4772 135 59 135H133.842C139.365 135 143.842 130.523 143.842 125V36.2911C143.842 30.7683 139.365 26.2911 133.842 26.2911H117.848M74.2911 26.2911V26.2911C74.2911 23.9212 76.2123 22 78.5823 22H113.557C115.927 22 117.848 23.9212 117.848 26.2911V26.2911M74.2911 26.2911H117.848" stroke="black" stroke-width="12" stroke-linecap="round" stroke-linejoin="round"/>
<path d="M111.525 108.411H126.981" stroke="black" stroke-width="8" stroke-linecap="round" stroke-linejoin="round"/>
<path d="M65.8608 107.709H81.3165" stroke="black" stroke-width="8" stroke-linecap="round" stroke-linejoin="round"/>
<path d="M129.17 46.9949V73.9619C129.17 77.2756 126.484 79.9599 123.17 79.9599H69C65.6863 79.9599 63 77.2736 63 73.9599V47C63 43.6863 65.6863 41 69 41H123.17C126.484 41 129.17 43.6812 129.17 46.9949Z" stroke="black" stroke-width="10" stroke-linecap="round" stroke-linejoin="round"/>
</svg>

<svg width="192" height="192" viewBox="0 0 192 192" fill="none" xmlns="http://www.w3.org/2000/svg"><path d="m125 148 17 22M66 148l-17 22M74.291 26.291H59c-5.523 0-10 4.477-10 10V125c0 5.523 4.477 10 10 10h74.842c5.523 0 10-4.477 10-10V36.291c0-5.523-4.477-10-10-10h-15.994m-43.557 0v0A4.291 4.291 0 0 1 78.582 22h34.975a4.291 4.291 0 0 1 4.291 4.291v0m-43.557 0h43.557" stroke="#000" stroke-width="12" stroke-linecap="round" stroke-linejoin="round"/><path d="M111.525 108.411h15.456M65.86 107.709h15.457" stroke="#000" stroke-width="8" stroke-linecap="round" stroke-linejoin="round"/><path d="M129.17 46.995v26.967a5.998 5.998 0 0 1-6 5.998H69a6 6 0 0 1-6-6V47a6 6 0 0 1 6-6h54.17c3.314 0 6 2.681 6 5.995Z" stroke="#000" stroke-width="10" stroke-linecap="round" stroke-linejoin="round"/></svg>
